Origami/64x64/apps/instagram.svg

<svg width="64" height="64" version="1" xmlns="http://www.w3.org/2000/svg">
 <path d="m4.0000004 56.200069v1.999971c0 1.549978 1.2495821 2.79996 2.80076 2.79996h50.39928c1.549977 0 2.79996-1.249982 2.79996-2.79996v-1.999971c0 1.549978-1.249983 2.79996-2.79996 2.79996h-50.39928c-1.5503779 0-2.79996-1.249982-2.79996-2.79996z" style="opacity:.2"/>
 <rect transform="matrix(0,-1,-1,0,0,0)" x="-60" y="-60" width="55.999" height="55.999" rx="2.8" ry="2.8" style="fill:#765a4d"/>
 <rect x="8" y="4" width="6" height="8" style="fill:#e15a5a"/>
 <rect x="14" y="4" width="6" height="8" style="fill:#f1a24a"/>
 <rect x="20" y="4" width="6" height="8" style="fill:#50b449"/>
 <rect x="26" y="4" width="6" height="8" style="fill:#498fb4"/>
 <path d="m51.999314 8.0003575a3.9999428 3.9999428 0 0 1 3.999943 3.9999425 3.9999428 3.9999428 0 0 1 -3.999943 3.999943 3.9999428 3.9999428 0 0 1 -3.999943 -3.999943 3.9999428 3.9999428 0 0 1 3.999943 -3.9999425z" style="fill:#383838"/>
 <path d="M 31.9996,17.00063 A 15.999771,15.999771 0 0 1 47.999371,33.000401 15.999771,15.999771 0 0 1 31.9996,49.000172 15.999771,15.999771 0 0 1 15.999829,33.000401 15.999771,15.999771 0 0 1 31.9996,17.00063 Z" style="opacity:.2"/>
 <path d="M 31.9996,16.000243 A 15.999771,15.999771 0 0 1 47.999371,32.000014 15.999771,15.999771 0 0 1 31.9996,47.999786 15.999771,15.999771 0 0 1 15.999829,32.000014 15.999771,15.999771 0 0 1 31.9996,16.000243 Z" style="fill:#9b9b9b"/>
 <path d="m31.9996 23.000544a9.999857 9.999857 0 0 0 -9.999857 9.999857 9.999857 9.999857 0 0 0 9.999857 9.999857 9.999857 9.999857 0 0 0 9.999857 -9.999857 9.999857 9.999857 0 0 0 -9.999857 -9.999857z" style="opacity:.2"/>
 <path d="m31.9996 22.000157a9.999857 9.999857 0 0 0 -9.999857 9.999857 9.999857 9.999857 0 0 0 9.999857 9.999857 9.999857 9.999857 0 0 0 9.999857 -9.999857 9.999857 9.999857 0 0 0 -9.999857 -9.999857z" style="fill:#e8e8e8"/>
 <path d="M 6.8007812 4 C 5.2496034 4 4 5.2496034 4 6.8007812 L 4 7.8007812 C 4 6.2496035 5.2496034 5 6.8007812 5 L 57.199219 5 C 58.749196 5 60 6.2496034 60 7.8007812 L 60 6.8007812 C 60 5.2496034 58.749196 4 57.199219 4 L 6.8007812 4 z" style="fill:#ffffff;opacity:.2"/>
</svg>

<svg xmlns="http://www.w3.org/2000/svg" width="64" height="64" version="1">
 <path style="opacity:0.2" d="m 4.0000004,56.200069 0,1.999971 c 0,1.549978 1.2495821,2.79996 2.80076,2.79996 L 57.20004,61 C 58.750017,61 60,59.750018 60,58.20004 l 0,-1.999971 c 0,1.549978 -1.249983,2.79996 -2.79996,2.79996 l -50.3992796,0 c -1.5503779,0 -2.79996,-1.249982 -2.79996,-2.79996 z"/>
 <rect style="fill:#765a4d" width="55.999" height="55.999" x="-60" y="-60" rx="2.8" ry="2.8" transform="matrix(0,-1,-1,0,0,0)"/>
 <rect style="fill:#e15a5a" width="6" height="8" x="8" y="4"/>
 <rect style="fill:#f1a24a" width="6" height="8" x="14" y="4"/>
 <rect style="fill:#50b449" width="6" height="8" x="20" y="4"/>
 <rect style="fill:#498fb4" width="6" height="8" x="26" y="4"/>
 <path style="fill:#383838" d="M 51.999314,8.0003575 A 3.9999428,3.9999428 0 0 1 55.999257,12.0003 3.9999428,3.9999428 0 0 1 51.999314,16.000243 3.9999428,3.9999428 0 0 1 47.999371,12.0003 3.9999428,3.9999428 0 0 1 51.999314,8.0003575 Z"/>
 <path style="opacity:0.2" d="M 31.9996,17.00063 A 15.999771,15.999771 0 0 1 47.999371,33.000401 15.999771,15.999771 0 0 1 31.9996,49.000172 15.999771,15.999771 0 0 1 15.999829,33.000401 15.999771,15.999771 0 0 1 31.9996,17.00063 Z"/>
 <path style="fill:#9b9b9b" d="M 31.9996,16.000243 A 15.999771,15.999771 0 0 1 47.999371,32.000014 15.999771,15.999771 0 0 1 31.9996,47.999786 15.999771,15.999771 0 0 1 15.999829,32.000014 15.999771,15.999771 0 0 1 31.9996,16.000243 Z"/>
 <path style="opacity:0.2" d="M 31.9996,23.000544 A 9.999857,9.999857 0 0 0 21.999743,33.000401 9.999857,9.999857 0 0 0 31.9996,43.000258 9.999857,9.999857 0 0 0 41.999457,33.000401 9.999857,9.999857 0 0 0 31.9996,23.000544 Z"/>
 <path style="fill:#e8e8e8" d="M 31.9996,22.000157 A 9.999857,9.999857 0 0 0 21.999743,32.000014 9.999857,9.999857 0 0 0 31.9996,41.999871 9.999857,9.999857 0 0 0 41.999457,32.000014 9.999857,9.999857 0 0 0 31.9996,22.000157 Z"/>
 <path style="opacity:0.2;fill:#ffffff" d="M 6.8007812 4 C 5.2496034 4 4 5.2496034 4 6.8007812 L 4 7.8007812 C 4 6.2496035 5.2496034 5 6.8007812 5 L 57.199219 5 C 58.749196 5 60 6.2496034 60 7.8007812 L 60 6.8007812 C 60 5.2496034 58.749196 4 57.199219 4 L 6.8007812 4 z"/>
</svg>
